X:1
T:Chi non sa
T:Simone Molinaro Genovese
T:Source : Canzonette a tre voci---Libro secondo---Venetia---R.Amadino---1600. Editor : André Vierendeels (26/11/16).
T:Notes, Original clefs : C2, C4, C4
T:Chi non sa
T:©
T:©
T:©
C:Simone Molinaro Genovese
Z:©
%%score [ 1 2 3 ]
L:1/8
Q:1/4=99
M:4/4
K:C
V:1 treble nm="Alto" snm="A"
V:2 treble-8 nm="Tenor" snm="T"
V:3 bass nm="Bass" snm="B"
V:1
 z4 G2 G2 | G4 G3 ^F | G4 z4 | D2 D2 D4 | D3 ^C D4 | z2 A2 A2 B2 | c4 B4 | z2 D2 D2 E2 | F4 E4 | %9
w: Chi non|sà ch'io mor-|ro,|chi non sà|ch'io mor- ro,|se da voi|lon- ge,|se da voi|lon- ge,|
 A,2 A,2 D4 | E8 | D4 D3 E | F2 E2 D4 | D4 z2 D2- | D2 A,2 C4 | B,2 C2 D4 | C8 :: G6 F2 | %18
w: al- ma cor|vi-|ta de la|vi- ta mi-|a, a-|* ver- ra|che piu sti-|a.|Ben lo|
 E4 E2 F2 | G4 F2 F2- | F2 F2 G4 | F4 z2 A2 | cBAA G2 GG | GFEE D4 | C2 C4 C2 | D8 | C8 :| %27
w: sa, ben lo|pro- va'hor il|_ cor mi-|o, se|to- sto'a- ri- ve- der- vi, se|to- sto ri- ve- der-|vi non torn'|i-|o.|
V:2
 z4 e2 e2 | e4 d3 c | d4 z4 | B2 B2 B4 | A3 G A4 | z2 f2 e2 g2 | a4 ^g4 | z2 B2 A2 B2 | d4 ^c4 | %9
w: Chi non|sà ch'io mor-|ro,|chi non sà|ch'io mor- ro,|se da voi|lon- ge,|se da voi|lon- ge,|
 d2 d2 B4 | c8 | B4 B3 c | d2 c2 B4 | B2 B4 A2 | ABcd e4 | d2 c4 B2 | c8 :: e6 d2 | ^c4 c2 d2 | %19
w: al- ma cor|vi-|ta de la|vi- ta mi-|a, a- ver-|ra _ _ _ _|che piu sti-|a.|Ben lo|sa, ben lo|
 e4 c2 d2 | d2 f4 e2 | f4 z2 f2 | agff e2 ee | edcc B4 | G2 A2 A2 c2- | c2 BA B4 | c8 :| %27
w: pro- va'hor il|cor mi- *|o, se|to- sto'a- ri- ve- der- vi, se|to- sto ri- ve- der-|vi non tom' i-||o.|
V:3
 C2 C2 C4- | C4 B,3 A, | G,4 G,2 G,2 | G,8 | F,3 E, D,4 | D4 C2 B,2 | A,4 E,4 | G,4 F,2 E,2 | %8
w: Chi non sà|_ ch'io mor-|ro, chi non|sà|ch'io mor- ro,|se da voi|lon- ge,|se da voi|
 D,4 A,4 | ^F,2 F,2 G,4 | C,8 | G,4 G,3 A, | _B,2 C2 G,4 | G,2 G,4 D,2 | F,4 E,2 F,2 | G,8 | C,8 :: %17
w: lon- ge,|al- ma cor|vi-|ta de la|vi- ta mi-|a, a ver-|ra che piu|sti-|a.|
 C,6 D,2 | A,4 A,2 D2 | C4 A,2 _B,2- | B,2 D2 C4 | F,4 z2 F,2 | F,G,A,B, C2 CC, | C,D,E,F, G,4 | %24
w: Ben lo|sa, ben lo|pro- va'hor il|_ cor mi-|o, se|to- sto'a- ri- ve- der- vi, se|to- sto ri- ve- der-|
 E,2 F,4 A,2 | G,8 | C,8 :| %27
w: vi non tom'|i-|o.|

